theme/colored/wizard-files.svg

<svg xmlns="http://www.w3.org/2000/svg" height="16" viewBox="0 0 16 16" width="16" version="1.1"><path fill="#0082c9" d="m1.5 2c-0.25 0-0.5 0.25-0.5 0.5v11c0 0.26 0.24 0.5 0.5 0.5h13c0.26 0 0.5-0.241 0.5-0.5v-9c0-0.25-0.25-0.5-0.5-0.5h-6.5l-2-2h-4.5zm8.75 3.5a1.25 1.25 0 0 1 1.25 1.25 1.25 1.25 0 0 1 -1.25 1.25 1.25 1.25 0 0 1 -0.8008 -0.291l-2.4512 1.2265a1.25 1.25 0 0 1 0.002 0.0645 1.25 1.25 0 0 1 -0.0039 0.0645l2.4531 1.2265a1.25 1.25 0 0 1 0.8008 -0.291 1.25 1.25 0 0 1 1.25 1.25 1.25 1.25 0 0 1 -1.25 1.25 1.25 1.25 0 0 1 -1.25 -1.25 1.25 1.25 0 0 1 0.0039 -0.064l-2.4531-1.227a1.25 1.25 0 0 1 -0.8008 0.291 1.25 1.25 0 0 1 -1.25 -1.25 1.25 1.25 0 0 1 1.25 -1.25 1.25 1.25 0 0 1 0.8008 0.291l2.4512-1.2265a1.25 1.25 0 0 1 -0.002 -0.0645 1.25 1.25 0 0 1 1.25 -1.25z"/></svg>

<?xml version="1.0" encoding="utf-8"?>
<!-- Generator: Adobe Illustrator 25.1.0, SVG Export Plug-In . SVG Version: 6.00 Build 0)  -->
<svg version="1.1" id="Layer_1" xmlns="http://www.w3.org/2000/svg" xmlns:xlink="http://www.w3.org/1999/xlink" x="0px" y="0px"
	 viewBox="0 0 16 16" style="enable-background:new 0 0 16 16;" xml:space="preserve">
<style type="text/css">
	.st0{fill:#C9570A;}
</style>
<path class="st0" d="M1.5,2C1.2,2,1,2.2,1,2.5v11C1,13.8,1.2,14,1.5,14h13c0.3,0,0.5-0.2,0.5-0.5v-9C15,4.2,14.8,4,14.5,4H8L6,2H1.5
	z M10.2,5.5c0.7,0,1.2,0.6,1.2,1.2S10.9,8,10.2,8C10,8,9.7,7.9,9.4,7.7L7,8.9C7,9,7,9,7,9c0,0,0,0,0,0.1l2.5,1.2
	C9.7,10.1,10,10,10.2,10c0.7,0,1.2,0.6,1.2,1.2s-0.6,1.2-1.2,1.2S9,11.9,9,11.2c0,0,0,0,0-0.1L6.6,10c-0.2,0.2-0.5,0.3-0.8,0.3
	c-0.7,0-1.2-0.6-1.2-1.2s0.6-1.2,1.2-1.2C6,7.8,6.3,7.9,6.6,8L9,6.8c0,0,0,0,0-0.1C9,6.1,9.6,5.5,10.2,5.5z"/>
</svg>
